X:1
T:Title
%%score { ( 1 3 ) | ( 2 4 ) }
L:1/8
Q:1/4=100
M:4/4
K:A
V:1 treble nm="Grand Piano"
V:3 treble 
V:2 bass 
V:4 bass 
V:1
 [CA]2 [CE]2 [CA][DG][EA][Ec] | [DB]4 [DF]4 | [CE]2 [CA]2 [EA][EA][DG][CA] | [EB]6[K:bass] z2 | %4
w: J.~H.~Ruebush * * * * *||||
 [Ec]2 [Ec]2 [Fd][Ec][DB][EA] | [FA]4 F4 | E2 A2 GAcB |[M:3/4] [CEA]6 |[M:1/4] [Ac][Ad] | %9
w: |||||
[M:4/4] [Ae]4 [Ac]2 z2 | [Fd]4 z4 | E2 A2 A2 GA | B6 z2 | [Ae]4 z4 | [DB]4 z4 | E2 A2 c2 B2 | %16
w: |||||||
 [CA]6 z2 |] %17
w: |
V:2
 [A,,E,]2 [A,,A,]2 [A,,E,][B,,E,][C,A,][A,,A,] | [D,A,]4 [D,A,]4 | %2
 [A,,A,]2 [A,,E,]2 [C,A,][C,A,][B,,E,][A,,E,] | [E,G,]2 E,2 E,D,C,B,, | %4
 [A,,A,]2 [A,,A,]2 [A,,A,][A,,A,][B,,G,][C,A,] | [D,A,]4 [D,A,D]4 | %6
 [E,A,C]2 [E,A,C]2 [E,B,D][E,CE][E,E][E,DE] |[M:3/4] A,,6 |[M:1/4] A,[A,B,] | %9
[M:4/4] [A,C]A,A,A, A,A,[A,E][A,E] | [D,A,]D,D,D, [D,A,D]2 [D,A,D][D,A,D] | z4 z2 [A,E]2 | E6 z2 | %13
 [A,,C]A,,A,,A,, [A,,A,][A,,A,][B,,G,][C,A,] | [D,A,]D,D,D, [D,A,D]2 [D,A,D][D,A,D] | %15
 [E,A,C]2 [E,A,C]2 [E,A,E]2 [E,G,D]2 | [A,,A,]6 z2 |] %17
V:3
 x8 | x8 | x8 | z2[K:bass] G,2 G,B,A,G, | x8 | x8 | x8 |[M:3/4] x6 |[M:1/4] x2 | %9
[M:4/4] z CCC EEBc | z A,A,A, F2 FF | x8 | z2 G,G, G,B,[Ec][Ed] | z CCC [Ec]2 [Ed][Ec] | %14
 z A,A,A, F2 GF | x8 | x8 |] %17
V:4
 x8 | x8 | x8 | x8 | x8 | x8 | x8 |[M:3/4] x6 |[M:1/4] x2 |[M:4/4] x8 | x8 | %11
 [A,C]2 [A,CE]2 [F,C]2 F,^E, | [E,G,]2 E,E, E,D,[C,A,][B,,B,] | x8 | x8 | x8 | x8 |] %17

